common/src/main/resources/icons/expui/toolwindow/toolWindowInternal@20x20.svg

<svg xmlns="http://www.w3.org/2000/svg" width="20" height="20" viewBox="0 0 24 24"><path fill="#FFB74D" d="m13.78 15.3 6 6 2.11-2.16-6-6zm3.72-5.2c-.39 0-.81-.05-1.14-.19L4.97 21.25l-2.11-2.11 7.41-7.4L8.5 9.96l-.72.7-1.45-1.41v2.86l-.7.7-3.52-3.56.7-.7h2.81l-1.4-1.41 3.56-3.56a2.976 2.976 0 0 1 4.22 0L9.89 5.74l1.41 1.4-.71.71 1.79 1.78 1.82-1.88c-.14-.33-.2-.75-.2-1.12a3.49 3.49 0 0 1 3.5-3.52c.59 0 1.11.14 1.58.42L16.41 6.2l1.5 1.5 2.67-2.67c.28.47.42.97.42 1.6 0 1.92-1.55 3.47-3.5 3.47"/></svg>

<!--
  - The MIT License (MIT)
  -
  - Copyright (c) 2015-2023 Elior "Mallowigi" Boukhobza
  -
  - Permission is hereby granted, free of charge, to any person obtaining a copy
  - of this software and associated documentation files (the "Software"), to deal
  - in the Software without restriction, including without limitation the rights
  - to use, copy, modify, merge, publish, distribute, sublicense, and/or sell
  - copies of the Software, and to permit persons to whom the Software is
  - furnished to do so, subject to the following conditions:
  -
  - The above copyright notice and this permission notice shall be included in all
  - copies or substantial portions of the Software.
  -
  - THE SOFTWARE IS PROVIDED "AS IS", WITHOUT WARRANTY OF ANY KIND, EXPRESS OR
  - IMPLIED, INCLUDING BUT NOT LIMITED TO THE WARRANTIES OF MERCHANTABILITY,
  - FITNESS FOR A PARTICULAR PURPOSE AND NONINFRINGEMENT. IN NO EVENT SHALL THE
  - AUTHORS OR COPYRIGHT HOLDERS BE LIABLE FOR ANY CLAIM, DAMAGES OR OTHER
  - LIABILITY, WHETHER IN AN ACTION OF CONTRACT, TORT OR OTHERWISE, ARISING FROM,
  - OUT OF OR IN CONNECTION WITH THE SOFTWARE OR THE USE OR OTHER DEALINGS IN THE
  - SOFTWARE.
  -
  -->


<svg xmlns="http://www.w3.org/2000/svg" version="1.1" width="20px" height="20px" viewBox="0 0 24 24">
  <path fill="#FFB74D"
        d="M13.78 15.3L19.78 21.3L21.89 19.14L15.89 13.14L13.78 15.3M17.5 10.1C17.11 10.1 16.69 10.05 16.36 9.91L4.97 21.25L2.86 19.14L10.27 11.74L8.5 9.96L7.78 10.66L6.33 9.25V12.11L5.63 12.81L2.11 9.25L2.81 8.55H5.62L4.22 7.14L7.78 3.58C8.95 2.41 10.83 2.41 12 3.58L9.89 5.74L11.3 7.14L10.59 7.85L12.38 9.63L14.2 7.75C14.06 7.42 14 7 14 6.63C14 4.66 15.56 3.11 17.5 3.11C18.09 3.11 18.61 3.25 19.08 3.53L16.41 6.2L17.91 7.7L20.58 5.03C20.86 5.5 21 6 21 6.63C21 8.55 19.45 10.1 17.5 10.1Z"/>
</svg>
